anatomy-assets/svg/lower_bones_fibula.svg

<?xml version="1.0" encoding="UTF-8" standalone="no"?>
<!-- Generator: Adobe Illustrator 12.0.0, SVG Export Plug-In . SVG Version: 6.00 Build 51448)  -->

<svg
   version="1.0"
   id="Layer_1"
   width="157.45488"
   height="446.52948"
   viewBox="0 0 157.45488 446.52947"
   overflow="visible"
   enable-background="new 0 0 435.687 841.89"
   xml:space="preserve"
   sodipodi:version="0.32"
   inkscape:version="1.4.2 (f4327f4, 2025-05-13)"
   sodipodi:docname="lower_bones_fibula.svg"
   inkscape:output_extension="org.inkscape.output.svg.inkscape"
   style="display:inline;overflow:visible"
   xmlns:inkscape="http://www.inkscape.org/namespaces/inkscape"
   xmlns:sodipodi="http://sodipodi.sourceforge.net/DTD/sodipodi-0.dtd"
   xmlns="http://www.w3.org/2000/svg"
   xmlns:svg="http://www.w3.org/2000/svg"
   xmlns:rdf="http://www.w3.org/1999/02/22-rdf-syntax-ns#"
   xmlns:cc="http://creativecommons.org/ns#"
   xmlns:dc="http://purl.org/dc/elements/1.1/"><metadata
   id="metadata3098"><rdf:RDF><cc:Work
       rdf:about=""><dc:format>image/svg+xml</dc:format><dc:type
         rdf:resource="http://purl.org/dc/dcmitype/StillImage" /></cc:Work><cc:Work
       rdf:about=""><dc:format>image/svg+xml</dc:format><dc:type
         rdf:resource="http://purl.org/dc/dcmitype/StillImage" /></cc:Work></rdf:RDF></metadata><defs
   id="defs3096"><inkscape:perspective
   sodipodi:type="inkscape:persp3d"
   inkscape:vp_x="0 : 25.584482 : 1"
   inkscape:vp_y="0 : 1000 : 0"
   inkscape:vp_z="435.68702 : 25.584482 : 1"
   inkscape:persp3d-origin="217.84352 : -114.73053 : 1"
   id="perspective3100" />
		
		
		
		
	
		
		
	
		
		
		
		
		
	
	
	

		
		
		
	
			
			
		
				
				
				
				
				
			
	
	
</defs>
<sodipodi:namedview
   inkscape:window-height="1360"
   inkscape:window-width="1278"
   inkscape:pageshadow="2"
   inkscape:pageopacity="0.0"
   guidetolerance="10.0"
   gridtolerance="10.0"
   objecttolerance="10.0"
   borderopacity="1.0"
   bordercolor="#666666"
   pagecolor="#ffffff"
   id="base"
   showgrid="false"
   inkscape:zoom="1.9049022"
   inkscape:cx="96.067924"
   inkscape:cy="165.88778"
   inkscape:window-x="1913"
   inkscape:window-y="0"
   inkscape:current-layer="layer3"
   showguides="true"
   inkscape:guide-bbox="true"
   inkscape:showpageshadow="2"
   inkscape:pagecheckerboard="0"
   inkscape:deskcolor="#d1d1d1"
   inkscape:window-maximized="0" />
<g
   inkscape:groupmode="layer"
   id="layer3"
   inkscape:label="Skeleton"
   style="display:inline"
   transform="translate(-121.94541,-322.46856)"><g
     style="display:inline;overflow:visible"
     id="FibulaRight"
     inkscape:label="Fibula">
	<path
   d="m 161.602,622.69 c -0.275,-2.346 -0.951,-4.168 -2.552,-3.871 0.797,0.265 1.891,0.255 2.705,0.294 -0.374,-4.057 -3.704,-10.944 -7.75,-12.409 -0.174,2.168 -1.705,4.22 -2.235,6.392 -0.67,2.753 0.531,4.255 1.512,6.732 0.391,-0.027 0.918,0.146 1.314,0.116 -0.696,10.504 0.201,22.204 2.567,32.567 2.996,13.12 2.502,26.338 4.36,39.64 0.993,7.099 1.341,14.367 2.704,21.404 1.083,5.585 2.419,11.185 2.251,16.871 -0.142,4.861 -1.109,10.005 -0.698,14.851 0.377,4.429 0.298,7.965 -1.021,12.386 -0.709,2.374 -0.367,3.96 0.323,6.643 1.3,0.114 4.856,-1.633 6.024,-2.459 1.78,-1.258 2.252,-2.554 2.514,-4.979 0.603,-5.566 -1.39,-10.995 -0.722,-16.415 0.583,-4.72 -0.384,-9.293 -0.726,-13.989 -0.352,-4.823 -0.855,-9.8 -1.092,-14.573 -0.237,-4.777 -0.902,-9.389 -1.412,-14.106 -0.859,-7.952 -1.591,-15.354 -3.149,-23.225 -1.656,-8.368 -2.897,-16.83 -3.368,-25.354 -0.333,-6.037 -0.686,-12.204 -1.36,-18.238 -0.367,-3.285 1.058,-9.483 -2.02,-11.897 3.647,-0.181 1.972,-5.425 0.975,-7.404 -1.183,-2.347 -3.372,-8.546 -6.07,-5.05 0.289,0.063 0.517,-0.041 0.688,-0.313"
   id="path421"
   style="fill:#f3d48c;stroke:#967348;stroke-width:0.3218" />
	<path
   d="m 156.08,610.236 c -1.864,1.217 -2.291,3.849 -1.457,5.695 0.34,-0.112 0.713,-0.165 1.045,-0.298 -0.342,1.742 1.001,2.34 2.437,2.471 -2.682,-0.242 -3.931,1.899 -5.345,-1.877 -1.108,-2.958 0.063,-6.575 2.506,-8.458 0.489,0.687 1.159,1.394 1.529,2.108"
   id="path423"
   style="fill:#dcc06d" />
	<path
   d="m 161.086,635.269 c 0.28,3.864 -1.332,7.653 -0.733,11.437 0.505,3.187 1.645,6.415 2.162,9.56 0.248,-3.411 -0.544,-6.938 -0.722,-10.337 -0.175,-3.338 1.014,-8.397 -0.35,-11.376"
   id="path425"
   style="fill:#dcc06d" />
	<path
   d="m 163.589,700.708 c 2.303,8.906 4.048,18.152 4.927,27.186 0.749,7.691 -0.353,17.322 2.262,24.558 -1.044,-2.758 -1.563,-4.041 -2.899,-0.972 -1.217,2.798 -1.625,6.267 -2.519,9.201 1.925,-11.97 2.222,-24.375 0.724,-36.372 -0.558,-4.463 -1.449,-8.801 -2.216,-13.23 -0.621,-3.589 -2.634,-11.246 -0.27,-14.533 0.776,2.998 0.981,6.424 1.422,9.526"
   id="path427"
   style="fill:#dcc06d" />
</g><g
     style="display:inline;overflow:visible"
     id="FibulaLeft"
     inkscape:label="Fibula">
	<path
   d="m 239.479,620.989 c 0.32,-2.339 1.032,-4.147 2.628,-3.819 -0.802,0.25 -1.896,0.217 -2.711,0.24 0.457,-4.05 3.922,-10.868 7.996,-12.251 0.132,2.17 1.621,4.253 2.106,6.436 0.617,2.765 -0.616,4.242 -1.646,6.7 -0.388,-0.036 -0.919,0.127 -1.315,0.09 0.486,10.516 -0.643,22.194 -3.217,32.509 -3.254,13.059 -3.023,26.284 -5.148,39.544 -1.133,7.077 -1.627,14.337 -3.131,21.347 -1.192,5.563 -2.641,11.135 -2.585,16.823 0.045,4.863 0.908,10.024 0.401,14.862 -0.466,4.42 -0.457,7.957 0.771,12.402 0.663,2.389 0.288,3.968 -0.454,6.636 -1.301,0.087 -4.823,-1.73 -5.975,-2.579 -1.755,-1.293 -2.2,-2.598 -2.413,-5.026 -0.493,-5.579 1.609,-10.966 1.049,-16.398 -0.488,-4.73 0.568,-9.283 1.004,-13.972 0.448,-4.815 1.052,-9.781 1.383,-14.548 0.332,-4.774 1.09,-9.371 1.692,-14.078 1.019,-7.934 1.896,-15.317 3.612,-23.156 1.822,-8.333 3.23,-16.77 3.873,-25.281 0.452,-6.029 0.928,-12.188 1.723,-18.207 0.431,-3.277 -0.87,-9.502 2.257,-11.855 -3.643,-0.252 -1.864,-5.463 -0.828,-7.421 1.229,-2.324 3.543,-8.478 6.169,-4.93 -0.288,0.059 -0.514,-0.05 -0.679,-0.326"
   id="path2361"
   style="fill:#f3d48c;stroke:#967348;stroke-width:0.3218" />
	<path
   d="m 245.246,608.648 c 1.841,1.253 2.214,3.894 1.345,5.723 -0.34,-0.118 -0.71,-0.179 -1.04,-0.316 0.308,1.746 -1.047,2.318 -2.484,2.42 2.686,-0.189 3.893,1.978 5.381,-1.77 1.167,-2.936 0.067,-6.576 -2.339,-8.507 -0.502,0.677 -1.187,1.369 -1.57,2.078"
   id="path2363"
   style="fill:#dcc06d" />
	<path
   d="m 239.742,633.574 c -0.356,3.858 1.18,7.68 0.505,11.449 -0.569,3.177 -1.772,6.382 -2.353,9.516 -0.18,-3.416 0.683,-6.925 0.931,-10.321 0.238,-3.333 -0.85,-8.415 0.573,-11.365"
   id="path2365"
   style="fill:#dcc06d" />
	<path
   d="m 235.934,698.951 c -2.479,8.86 -4.408,18.07 -5.467,27.082 -0.902,7.677 0.007,17.327 -2.751,24.508 1.099,-2.736 1.642,-4.008 2.916,-0.914 1.162,2.823 1.501,6.299 2.336,9.251 -1.688,-12.006 -1.734,-24.415 0.002,-36.379 0.645,-4.451 1.625,-8.771 2.479,-13.186 0.692,-3.575 2.856,-11.189 0.558,-14.523 -0.834,2.981 -1.106,6.402 -1.61,9.497"
   id="path2367"
   style="fill:#dcc06d" />
</g></g></svg>

<?xml version="1.0" encoding="UTF-8" standalone="no"?>
<!-- Generator: Adobe Illustrator 12.0.0, SVG Export Plug-In . SVG Version: 6.00 Build 51448)  -->

<svg
   version="1.0"
   id="Layer_1"
   width="435.68701"
   height="841.89001"
   viewBox="0 0 435.687 841.89"
   overflow="visible"
   enable-background="new 0 0 435.687 841.89"
   xml:space="preserve"
   sodipodi:version="0.32"
   inkscape:version="1.4.2 (f4327f4, 2025-05-13)"
   sodipodi:docname="lower_bones_fibula.svg"
   inkscape:output_extension="org.inkscape.output.svg.inkscape"
   style="overflow: visible; display: inline;"
   xmlns:inkscape="http://www.inkscape.org/namespaces/inkscape"
   xmlns:sodipodi="http://sodipodi.sourceforge.net/DTD/sodipodi-0.dtd"
   xmlns="http://www.w3.org/2000/svg"
   xmlns:svg="http://www.w3.org/2000/svg"
   xmlns:rdf="http://www.w3.org/1999/02/22-rdf-syntax-ns#"
   xmlns:cc="http://creativecommons.org/ns#"
   xmlns:dc="http://purl.org/dc/elements/1.1/"><metadata
   id="metadata3098"><rdf:RDF><cc:Work
       rdf:about=""><dc:format>image/svg+xml</dc:format><dc:type
         rdf:resource="http://purl.org/dc/dcmitype/StillImage" /></cc:Work><cc:Work
       rdf:about=""><dc:format>image/svg+xml</dc:format><dc:type
         rdf:resource="http://purl.org/dc/dcmitype/StillImage" /></cc:Work></rdf:RDF></metadata><defs
   id="defs3096"><inkscape:perspective
   sodipodi:type="inkscape:persp3d"
   inkscape:vp_x="0 : 420.94501 : 1"
   inkscape:vp_y="0 : 1000 : 0"
   inkscape:vp_z="435.68701 : 420.94501 : 1"
   inkscape:persp3d-origin="217.84351 : 280.63 : 1"
   id="perspective3100" />
		
		
		
		
	
		
		
	
		
		
		
		
		
	
	
	

		
		
		
	
			
			
		
				
				
				
				
				
			
	
	
</defs>
<sodipodi:namedview
   inkscape:window-height="1369"
   inkscape:window-width="2560"
   inkscape:pageshadow="2"
   inkscape:pageopacity="0.0"
   guidetolerance="10.0"
   gridtolerance="10.0"
   objecttolerance="10.0"
   borderopacity="1.0"
   bordercolor="#666666"
   pagecolor="#ffffff"
   id="base"
   showgrid="false"
   inkscape:zoom="1.9049022"
   inkscape:cx="217.85895"
   inkscape:cy="487.95156"
   inkscape:window-x="-8"
   inkscape:window-y="-8"
   inkscape:current-layer="layer3"
   showguides="true"
   inkscape:guide-bbox="true"
   inkscape:showpageshadow="2"
   inkscape:pagecheckerboard="0"
   inkscape:deskcolor="#d1d1d1"
   inkscape:window-maximized="1" />
<g
   inkscape:groupmode="layer"
   id="layer3"
   inkscape:label="Skeleton"
   style="display: inline;"><g
     style="overflow: visible; display: inline;"
     id="FibulaRight"
     inkscape:label="Fibula">
	<path
   d="M 161.602,622.69 C 161.327,620.344 160.651,618.522 159.05,618.819 C 159.847,619.084 160.941,619.074 161.755,619.113 C 161.381,615.056 158.051,608.169 154.005,606.704 C 153.831,608.872 152.3,610.924 151.77,613.096 C 151.1,615.849 152.301,617.351 153.282,619.828 C 153.673,619.801 154.2,619.974 154.596,619.944 C 153.9,630.448 154.797,642.148 157.163,652.511 C 160.159,665.631 159.665,678.849 161.523,692.151 C 162.516,699.25 162.864,706.518 164.227,713.555 C 165.31,719.14 166.646,724.74 166.478,730.426 C 166.336,735.287 165.369,740.431 165.78,745.277 C 166.157,749.706 166.078,753.242 164.759,757.663 C 164.05,760.037 164.392,761.623 165.082,764.306 C 166.382,764.42 169.938,762.673 171.106,761.847 C 172.886,760.589 173.358,759.293 173.62,756.868 C 174.223,751.302 172.23,745.873 172.898,740.453 C 173.481,735.733 172.514,731.16 172.172,726.464 C 171.82,721.641 171.317,716.664 171.08,711.891 C 170.843,707.114 170.178,702.502 169.668,697.785 C 168.809,689.833 168.077,682.431 166.519,674.56 C 164.863,666.192 163.622,657.73 163.151,649.206 C 162.818,643.169 162.465,637.002 161.791,630.968 C 161.424,627.683 162.849,621.485 159.771,619.071 C 163.418,618.89 161.743,613.646 160.746,611.667 C 159.563,609.32 157.374,603.121 154.676,606.617 C 154.965,606.68 155.193,606.576 155.364,606.304"
   id="path421"
   style="fill: rgb(243, 212, 140); stroke: rgb(150, 115, 72); stroke-width: 0.3218;" />
	<path
   d="M 156.08,610.236 C 154.216,611.453 153.789,614.085 154.623,615.931 C 154.963,615.819 155.336,615.766 155.668,615.633 C 155.326,617.375 156.669,617.973 158.105,618.104 C 155.423,617.862 154.174,620.003 152.76,616.227 C 151.652,613.269 152.823,609.652 155.266,607.769 C 155.755,608.456 156.425,609.163 156.795,609.877"
   id="path423"
   style="fill: rgb(220, 192, 109);" />
	<path
   d="M 161.086,635.269 C 161.366,639.133 159.754,642.922 160.353,646.706 C 160.858,649.893 161.998,653.121 162.515,656.266 C 162.763,652.855 161.971,649.328 161.793,645.929 C 161.618,642.591 162.807,637.532 161.443,634.553"
   id="path425"
   style="fill: rgb(220, 192, 109);" />
	<path
   d="M 163.589,700.708 C 165.892,709.614 167.637,718.86 168.516,727.894 C 169.265,735.585 168.163,745.216 170.778,752.452 C 169.734,749.694 169.215,748.411 167.879,751.48 C 166.662,754.278 166.254,757.747 165.36,760.681 C 167.285,748.711 167.582,736.306 166.084,724.309 C 165.526,719.846 164.635,715.508 163.868,711.079 C 163.247,707.49 161.234,699.833 163.598,696.546 C 164.374,699.544 164.579,702.97 165.02,706.072"
   id="path427"
   style="fill: rgb(220, 192, 109);" />
</g><g
     style="overflow: visible; display: inline;"
     id="FibulaLeft"
     inkscape:label="Fibula">
	<path
   d="M 239.479,620.989 C 239.799,618.65 240.511,616.842 242.107,617.17 C 241.305,617.42 240.211,617.387 239.396,617.41 C 239.853,613.36 243.318,606.542 247.392,605.159 C 247.524,607.329 249.013,609.412 249.498,611.595 C 250.115,614.36 248.882,615.837 247.852,618.295 C 247.464,618.259 246.933,618.422 246.537,618.385 C 247.023,628.901 245.894,640.579 243.32,650.894 C 240.066,663.953 240.297,677.178 238.172,690.438 C 237.039,697.515 236.545,704.775 235.041,711.785 C 233.849,717.348 232.4,722.92 232.456,728.608 C 232.501,733.471 233.364,738.632 232.857,743.47 C 232.391,747.89 232.4,751.427 233.628,755.872 C 234.291,758.261 233.916,759.84 233.174,762.508 C 231.873,762.595 228.351,760.778 227.199,759.929 C 225.444,758.636 224.999,757.331 224.786,754.903 C 224.293,749.324 226.395,743.937 225.835,738.505 C 225.347,733.775 226.403,729.222 226.839,724.533 C 227.287,719.718 227.891,714.752 228.222,709.985 C 228.554,705.211 229.312,700.614 229.914,695.907 C 230.933,687.973 231.81,680.59 233.526,672.751 C 235.348,664.418 236.756,655.981 237.399,647.47 C 237.851,641.441 238.327,635.282 239.122,629.263 C 239.553,625.986 238.252,619.761 241.379,617.408 C 237.736,617.156 239.515,611.945 240.551,609.987 C 241.78,607.663 244.094,601.509 246.72,605.057 C 246.432,605.116 246.206,605.007 246.041,604.731"
   id="path2361"
   style="fill: rgb(243, 212, 140); stroke: rgb(150, 115, 72); stroke-width: 0.3218;" />
	<path
   d="M 245.246,608.648 C 247.087,609.901 247.46,612.542 246.591,614.371 C 246.251,614.253 245.881,614.192 245.551,614.055 C 245.859,615.801 244.504,616.373 243.067,616.475 C 245.753,616.286 246.96,618.453 248.448,614.705 C 249.615,611.769 248.515,608.129 246.109,606.198 C 245.607,606.875 244.922,607.567 244.539,608.276"
   id="path2363"
   style="fill: rgb(220, 192, 109);" />
	<path
   d="M 239.742,633.574 C 239.386,637.432 240.922,641.254 240.247,645.023 C 239.678,648.2 238.475,651.405 237.894,654.539 C 237.714,651.123 238.577,647.614 238.825,644.218 C 239.063,640.885 237.975,635.803 239.398,632.853"
   id="path2365"
   style="fill: rgb(220, 192, 109);" />
	<path
   d="M 235.934,698.951 C 233.455,707.811 231.526,717.021 230.467,726.033 C 229.565,733.71 230.474,743.36 227.716,750.541 C 228.815,747.805 229.358,746.533 230.632,749.627 C 231.794,752.45 232.133,755.926 232.968,758.878 C 231.28,746.872 231.234,734.463 232.97,722.499 C 233.615,718.048 234.595,713.728 235.449,709.313 C 236.141,705.738 238.305,698.124 236.007,694.79 C 235.173,697.771 234.901,701.192 234.397,704.287"
   id="path2367"
   style="fill: rgb(220, 192, 109);" />
</g></g></svg>
